X: 953
T: Bessy Murphy   #2
R: jig
%S: s:2 b:12(6+6)
O: Ennis
B: O'Neill's 1850 #953
Z: Dan G. Petersen, dangp@post6.tele.dk
M: 6/8
L: 1/8
K: D
"^A"|: (A/G/) |: F2G ABc | ded cAG |[1,3 FGA cAG | FGA A2G :|[2,4 FDF GAG | FDF G2 :|
"^B"|: g | fed cde | fed cAG |[1,3 FGA cAG | FGA A2 :|[2,4 FDF GAG | FDF G2 :|
